X: 39618
T: Tempest, The
R: jig
M: 6/8
K: Gmajor
|:dc|B2B Bgf|e2e efg|ded dcB|cBcAdc|
B2B Bgf|e2e efg|ded cBA|GAG G:|
ga|b2g a2f|gfe d2c|Bdg dBG|FAA Aga|
b2g a2f|gfe agf|bag fge|dgf edc|
B2B Bgf|e2e efg|ded dcB|cBcAdc|
B2B Bgf|e2e efg|ded cBA|GAG G3||

